packages/tools/pie-icons/src/assets/payment/bimpli.svg

<svg width="24" height="24" viewBox="0 0 24 24" fill="none" xmlns="http://www.w3.org/2000/svg">
<path d="M7.49841 10.3952C7.77165 10.3516 7.95721 10.0987 7.91286 9.83024C7.86852 9.56178 7.61106 9.37947 7.33782 9.42304C7.06458 9.46661 6.87902 9.71956 6.92337 9.98802C6.96771 10.2565 7.22517 10.4388 7.49841 10.3952Z" fill="black"/>
<path d="M20.3221 10.6927C20.5954 10.6491 20.7809 10.3962 20.7366 10.1277C20.6923 9.85926 20.4348 9.67695 20.1616 9.72052C19.8883 9.76409 19.7028 10.017 19.7471 10.2855C19.7915 10.554 20.0489 10.7363 20.3221 10.6927Z" fill="black"/>
<path d="M6.30801 11.7332C6.24847 11.6377 6.17084 11.5503 6.07738 11.474C5.98468 11.3985 5.8686 11.34 5.73143 11.3008L5.70957 11.2941V11.2408L5.7254 11.2319C5.90704 11.1319 6.04573 10.989 6.13918 10.8061C6.23264 10.6225 6.28013 10.4292 6.28013 10.2322C6.28013 10.0308 6.23943 9.85159 6.15953 9.69904C6.07964 9.5465 5.96734 9.41691 5.82489 9.31472C5.68169 9.21179 5.50833 9.13255 5.30935 9.07998C5.10887 9.02666 4.88426 9 4.64082 9C4.64082 9 3.59995 9 3 9V13.7704C3.59995 13.7711 4.64082 13.7652 4.64082 13.7652C4.8805 13.7652 5.1149 13.7393 5.338 13.6882C5.55958 13.6378 5.75781 13.5564 5.92589 13.446C6.09246 13.3372 6.22812 13.1913 6.32836 13.0143C6.42861 12.8373 6.47911 12.6167 6.47911 12.3575C6.47911 12.2523 6.46554 12.1449 6.43841 12.0376C6.41203 11.9317 6.36756 11.8288 6.30801 11.7332ZM4.00544 9.95304H4.63403C4.80286 9.95304 4.92723 9.99747 5.0041 10.0848C5.07947 10.1715 5.11791 10.2752 5.11791 10.3944C5.11791 10.5173 5.08098 10.6284 5.00863 10.7232C4.93401 10.8209 4.81492 10.8705 4.65438 10.8705H4.00544V9.95304ZM5.17293 12.6515C5.08023 12.7596 4.94079 12.8144 4.75764 12.8144H4.00544V11.7554H4.76443C4.94682 11.7554 5.0855 11.808 5.17595 11.9109C5.26489 12.0131 5.31011 12.1368 5.31011 12.2782C5.31011 12.4189 5.26413 12.5448 5.17293 12.6515Z" fill="black"/>
<path d="M8.03099 12.8869C7.96994 12.8869 7.92019 12.8381 7.92019 12.7781V10.7298H6.9155C6.9155 10.7646 6.9155 12.6752 6.9155 12.6752C6.9155 12.9217 6.94716 13.1187 7.01122 13.2646C7.07529 13.4105 7.15819 13.523 7.2607 13.6008C7.3632 13.6785 7.47927 13.7289 7.60816 13.7519C7.73026 13.7733 8.0649 13.7726 8.2473 13.7726V12.8884C8.24579 12.8884 8.24429 12.8884 8.24278 12.8884H8.03099V12.8869Z" fill="black"/>
<path d="M17.1003 11.728C17.0272 11.5311 16.927 11.3637 16.8004 11.2252C16.6737 11.0868 16.5245 10.9809 16.3542 10.9068C16.1838 10.8328 15.9992 10.7957 15.8009 10.7957C15.6344 10.7957 15.4964 10.8172 15.3872 10.8602C15.2779 10.9031 15.1897 10.952 15.1226 11.006C15.0442 11.0675 14.9794 11.1371 14.9281 11.2141H14.8558C14.7978 11.0616 14.7013 10.935 14.5965 10.8557C14.4918 10.7757 14.3727 10.7239 14.2393 10.701C14.1141 10.6787 13.8918 10.6765 13.7576 10.6787V11.591C13.8375 11.5933 13.9325 11.5977 13.9747 11.614V15.0589H15.0043V13.5667C15.06 13.6371 15.1294 13.6993 15.2123 13.7541C15.2794 13.8007 15.3668 13.8444 15.4738 13.8859C15.5809 13.9266 15.706 13.9473 15.8484 13.9473C16.0504 13.9473 16.2351 13.9096 16.4016 13.8333C16.5682 13.757 16.7107 13.6504 16.8297 13.5119C16.9488 13.3735 17.0423 13.2091 17.1094 13.018C17.1765 12.827 17.2104 12.6167 17.2104 12.3871C17.2104 12.1442 17.1734 11.925 17.1003 11.728ZM16.0112 12.8966C15.9019 13.0313 15.7587 13.0987 15.5801 13.0987C15.501 13.0987 15.4241 13.0839 15.351 13.055C15.2779 13.0254 15.213 12.9817 15.1573 12.9232C15.1015 12.8647 15.057 12.7899 15.0231 12.7003C14.9892 12.61 14.9726 12.5048 14.9726 12.3834C14.9726 12.2819 14.9854 12.1857 15.0111 12.0961C15.0367 12.0057 15.0744 11.9265 15.1241 11.8584C15.1739 11.7895 15.2349 11.7354 15.3088 11.694C15.3819 11.6525 15.4663 11.6325 15.5613 11.6325C15.7316 11.6325 15.8763 11.6947 15.9954 11.8199C16.1145 11.945 16.174 12.125 16.174 12.3597C16.1755 12.5826 16.1205 12.7618 16.0112 12.8966Z" fill="black"/>
<path d="M13.38 11.3015C13.328 11.1571 13.2579 11.0401 13.169 10.9505C13.0801 10.8609 12.9745 10.7965 12.8539 10.758C12.7326 10.7187 12.603 10.6995 12.4643 10.6995C12.349 10.6995 12.2412 10.7143 12.1402 10.7432C12.0392 10.772 11.9465 10.8113 11.8636 10.8602C11.7799 10.909 11.7061 10.9638 11.6405 11.0238C11.5847 11.0749 11.5387 11.1275 11.5018 11.1801H11.4566C11.3782 11.0231 11.2689 10.9039 11.1287 10.8246C10.9802 10.7409 10.8084 10.6987 10.6139 10.6987C10.4949 10.6987 10.3871 10.7165 10.2898 10.7513C10.1926 10.7861 10.1067 10.8291 10.0313 10.8802C9.95595 10.9305 9.89113 10.9875 9.83762 11.0497C9.79767 11.0964 9.75848 11.1401 9.72607 11.1801H9.69592C9.69592 11.0757 9.69592 10.7935 9.69592 10.7291H8.7161C8.71535 10.738 8.7161 13.7704 8.7161 13.7704H9.74567V12.5048C9.74567 12.3997 9.75471 12.2945 9.77205 12.1894C9.79014 12.0842 9.82028 11.9894 9.864 11.9058C9.90771 11.8221 9.96726 11.7532 10.0426 11.6984C10.118 11.6436 10.2152 11.6088 10.3343 11.617C10.4338 11.6236 10.5725 11.7192 10.5725 11.9968V13.7711H11.602V12.5056C11.602 12.3923 11.6118 12.2827 11.6322 12.1753C11.6518 12.0679 11.685 11.9739 11.7302 11.8917C11.7754 11.8102 11.8364 11.7436 11.9118 11.6932C11.9872 11.6429 12.0806 11.617 12.1914 11.617C12.3648 11.617 12.4296 11.8265 12.4296 11.9968V13.7711H13.4592V11.828C13.4577 11.6214 13.432 11.4459 13.38 11.3015Z" fill="black"/>
<path d="M19.1738 16.4118C18.1668 16.4118 17.3475 15.6068 17.3475 14.6175H18.3507C18.3507 15.0633 18.72 15.4261 19.1738 15.4261C19.6275 15.4261 19.9968 15.0633 19.9968 14.6175H21C20.9992 15.6068 20.1807 16.4118 19.1738 16.4118Z" fill="black"/>
<path d="M19.7398 12.5233C19.7398 12.8292 19.4866 13.078 19.1753 13.078C18.864 13.078 18.6123 12.8292 18.6123 12.5233V10.0974C18.6123 9.85085 18.5806 9.65387 18.5165 9.50799C18.4525 9.36211 18.3696 9.24955 18.2671 9.1718C18.1646 9.09405 18.0485 9.04369 17.9196 9.02074C17.7975 8.99926 17.144 9 16.9616 9V9.88417C16.9632 9.88417 17.2835 9.88417 17.285 9.88417H17.4975C17.5586 9.88417 17.6083 9.93305 17.6083 9.99303V12.5219C17.6083 13.3712 18.3115 14.0621 19.176 14.0621C20.0405 14.0621 20.7437 13.3712 20.7437 12.5219V12.0005H19.7398V12.5233Z" fill="black"/>
</svg>

<svg fill="none" xmlns="http://www.w3.org/2000/svg" viewBox="0 0 24 24">
  <path d="M7.498 10.395a.494.494 0 0 0 .415-.565.5.5 0 0 0-.575-.407.494.494 0 0 0-.415.565.5.5 0 0 0 .575.407ZM20.322 10.693a.494.494 0 0 0 .415-.565.5.5 0 0 0-.575-.407.494.494 0 0 0-.415.565.5.5 0 0 0 .575.407ZM6.308 11.733a.96.96 0 0 0-.577-.432l-.021-.007v-.053l.015-.01c.182-.1.32-.242.414-.425.094-.183.141-.377.141-.574 0-.201-.04-.38-.12-.533a1.094 1.094 0 0 0-.335-.384 1.562 1.562 0 0 0-.516-.235A2.61 2.61 0 0 0 4.641 9H3v4.77c.6.001 1.64-.005 1.64-.005.24 0 .475-.026.698-.077.222-.05.42-.132.588-.242a1.24 1.24 0 0 0 .402-.432c.1-.177.151-.397.151-.656 0-.106-.013-.213-.04-.32a1.065 1.065 0 0 0-.131-.305Zm-2.303-1.78h.629c.169 0 .293.044.37.132.075.086.114.19.114.31a.53.53 0 0 1-.11.328c-.074.098-.193.147-.354.147h-.649v-.917Zm1.168 2.699c-.093.108-.232.162-.415.162h-.753v-1.059h.76c.182 0 .32.053.411.156a.544.544 0 0 1 .134.367.56.56 0 0 1-.137.373ZM8.031 12.887a.11.11 0 0 1-.11-.109V10.73H6.914v1.945c0 .247.032.444.096.59a.829.829 0 0 0 .25.336.8.8 0 0 0 .347.15c.122.022.457.022.64.022v-.885H8.03v-.001ZM17.1 11.728a1.519 1.519 0 0 0-.3-.503 1.304 1.304 0 0 0-.446-.318 1.375 1.375 0 0 0-.553-.111 1.14 1.14 0 0 0-.414.064 1.01 1.01 0 0 0-.264.146.896.896 0 0 0-.195.208h-.072a.82.82 0 0 0-.26-.358.804.804 0 0 0-.357-.155c-.125-.022-.347-.024-.481-.022v.912c.08.002.175.007.217.023v3.445h1.03v-1.492c.055.07.124.132.207.187.067.047.155.09.262.132.107.04.232.061.374.061.202 0 .387-.037.554-.114.166-.076.309-.183.428-.321a1.52 1.52 0 0 0 .28-.494c.067-.191.1-.401.1-.63a1.88 1.88 0 0 0-.11-.66Zm-1.089 1.169a.528.528 0 0 1-.43.202.62.62 0 0 1-.23-.044.55.55 0 0 1-.194-.132.654.654 0 0 1-.134-.223.899.899 0 0 1-.05-.317c0-.101.012-.197.038-.287a.742.742 0 0 1 .113-.238.564.564 0 0 1 .185-.164.503.503 0 0 1 .252-.062c.17 0 .315.063.434.188.12.125.179.305.179.54.002.223-.053.402-.163.537ZM13.38 11.302a.943.943 0 0 0-.211-.351.767.767 0 0 0-.315-.193 1.255 1.255 0 0 0-.99.102 1.296 1.296 0 0 0-.224.164.963.963 0 0 0-.138.156h-.045a.813.813 0 0 0-.328-.355 1.031 1.031 0 0 0-.515-.126.956.956 0 0 0-.324.052 1.147 1.147 0 0 0-.259.13.95.95 0 0 0-.193.169c-.04.046-.08.09-.112.13h-.03v-.45h-.98v3.04h1.03v-1.265c0-.105.009-.21.026-.316a.96.96 0 0 1 .092-.283.591.591 0 0 1 .179-.208.434.434 0 0 1 .291-.081c.1.007.239.102.239.38v1.774h1.029v-1.265c0-.114.01-.223.03-.33a.93.93 0 0 1 .098-.284.566.566 0 0 1 .182-.199.493.493 0 0 1 .28-.076c.173 0 .238.21.238.38v1.774h1.03v-1.943a1.598 1.598 0 0 0-.08-.526ZM19.174 16.412c-1.007 0-1.826-.805-1.826-1.794h1.003c0 .445.369.808.823.808a.817.817 0 0 0 .823-.809H21c0 .99-.82 1.795-1.826 1.795ZM19.74 12.523a.56.56 0 0 1-.565.555.559.559 0 0 1-.563-.555v-2.426c0-.246-.031-.443-.095-.589a.828.828 0 0 0-.25-.336.799.799 0 0 0-.347-.151c-.123-.022-.776-.021-.958-.021v.884h.535a.11.11 0 0 1 .111.109v2.529c0 .85.703 1.54 1.568 1.54.865 0 1.568-.69 1.568-1.54V12H19.74v.522Z" fill="#000"/>
</svg>
